assets/subsocial/logo.svg

<svg width="300" height="300" viewBox="0 0 300 300" fill="none" xmlns="http://www.w3.org/2000/svg">
<path fill-rule="evenodd" clip-rule="evenodd" d="M300 150C300 232.843 232.843 300 150 300C67.1573 300 0 232.843 0 150C0 67.1573 67.1573 0 150 0C232.843 0 300 67.1573 300 150ZM149.489 31.9888C118.837 31.9888 93.9888 56.837 93.9888 87.4888V123.489C93.9888 154.141 118.837 178.989 149.489 178.989C153.791 178.989 157.979 178.499 162 177.573C164.415 177.017 165.092 174.036 163.3 172.325L163 172.038L131.027 141.5C126.069 136.684 122.989 129.946 122.989 122.489V88.4888C122.989 73.8532 134.853 61.9888 149.489 61.9888C164.124 61.9888 175.989 73.8532 175.989 88.4888V100C175.989 102.209 177.78 104 179.989 104H200.989C203.198 104 204.989 102.209 204.989 100V87.4888C204.989 56.837 180.141 31.9888 149.489 31.9888ZM205 209.5C205 240.152 180.152 265 149.5 265C118.848 265 94 240.152 94 209.5V197C94 194.791 95.7909 193 98 193H119C121.209 193 123 194.791 123 197V208.5C123 223.136 134.864 235 149.5 235C164.136 235 176 223.136 176 208.5V174.5C176 167.042 172.919 160.304 167.961 155.489L135.989 124.951L135.688 124.664C133.896 122.952 134.574 119.972 136.989 119.416C141.01 118.49 145.198 118 149.5 118C180.152 118 205 142.848 205 173.5V209.5Z" fill="url(#paint0_linear)"/>
<defs>
<linearGradient id="paint0_linear" x1="150" y1="0" x2="150" y2="300" gradientUnits="userSpaceOnUse">
<stop stop-color="#F50083"/>
<stop offset="1" stop-color="#720497"/>
</linearGradient>
</defs>
</svg>

<svg width="300" height="300" fill="none" xmlns="http://www.w3.org/2000/svg">
    <path fill="url(#paint0_linear)" d="M0 0h300v300H0z"/>
    <circle cx="150" cy="150" r="140" fill="#fff"/>
    <path fill-rule="evenodd" clip-rule="evenodd" d="M300 150c0 82.843-67.157 150-150 150S0 232.843 0 150 67.157 0 150 0s150 67.157 150 150zM149.489 31.989c-30.652 0-55.5 24.848-55.5 55.5v36c0 30.652 24.848 55.5 55.5 55.5 4.302 0 8.49-.49 12.511-1.416 2.415-.556 3.092-3.537 1.3-5.248l-.3-.287-31.973-30.538c-4.958-4.816-8.038-11.554-8.038-19.011v-34c0-14.636 11.864-26.5 26.5-26.5 14.635 0 26.5 11.864 26.5 26.5V100a4 4 0 004 4h21a4 4 0 004-4V87.489c0-30.652-24.848-55.5-55.5-55.5zM205 209.5c0 30.652-24.848 55.5-55.5 55.5S94 240.152 94 209.5V197a4 4 0 014-4h21a4 4 0 014 4v11.5c0 14.636 11.864 26.5 26.5 26.5s26.5-11.864 26.5-26.5v-34c0-7.458-3.081-14.196-8.039-19.011l-31.972-30.538-.301-.287c-1.792-1.712-1.114-4.692 1.301-5.248A55.696 55.696 0 01149.5 118c30.652 0 55.5 24.848 55.5 55.5v36z" fill="url(#paint0_linear)"/>
    <defs>
        <linearGradient id="paint0_linear" x1="150" y1="0" x2="150" y2="300" gradientUnits="userSpaceOnUse">
            <stop stop-color="#F50083"/>
            <stop offset="1" stop-color="#720497"/>
        </linearGradient>
    </defs>
</svg>
